; generated by PrusaSlicer 2.6.1+win64 on 2024-06-13 at 17:19:55 UTC

; 

; external perimeters extrusion width = 0.45mm
; perimeters extrusion width = 0.45mm
; infill extrusion width = 0.50mm
; solid infill extrusion width = 0.45mm
; top infill extrusion width = 0.55mm
; first layer extrusion width = 0.42mm

M73 P0 R26
M73 Q0 S26
M201 X1000 Y1000 Z80 E10000 ; sets maximum accelerations, mm/sec^2
M203 X300 Y300 Z12 E120 ; sets maximum feedrates, mm / sec
M204 P1250 R1250 T1250 ; sets acceleration (P, T) and retract acceleration (R), mm/sec^2
M205 X8.00 Y8.00 Z0.20 E1.50 ; sets the jerk limits, mm/sec
M205 S0 T0 ; sets the minimum extruding and travel feed rate, mm/sec
;TYPE:Custom
G28

M104 S150 ; set extruder temp
M140 S50 ; set bed temp
M190 S50 ; wait for bed temp
M109 S150 ; wait for extruder temp

G29

M104 S210 ; set extruder temp
M140 S40 ; set bed temp
M190 S40 ; wait for bed temp
M109 S210 ; wait for extruder temp

G1 X-3.0 Y5.0 Z0.3 F1000.0
G92 E0.0
G1 Y30.0 E9.0
G1 Y100.0 E 12.5 F500.0
G92 E0.0
G21 ; set units to millimeters
G90 ; use absolute coordinates
M82 ; use absolute distances for extrusion
G92 E0
M107
;LAYER_CHANGE
;Z:0.2
;HEIGHT:0.2
G1 E-2 F2400
G92 E0
G1 Z.2 F7200
G1 Z.4
G1 X78.157 Y86.403
G1 Z.2
G1 E2 F2400
;TYPE:Skirt/Brim
;WIDTH:0.42
G1 F1200
G1 X78.957 Y86.071 E2.02716
G1 X121.04 Y86.066 E3.34664
G1 X121.84 Y86.398 E3.3738
G1 X123.598 Y88.155 E3.45173
G1 X123.929 Y88.955 E3.47888
G1 X123.932 Y111.04 E4.17134
G1 X123.6 Y111.84 E4.1985
G1 X121.843 Y113.597 E4.27641
G1 X121.043 Y113.929 E4.30357
G1 X78.96 Y113.934 E5.62305
G1 X78.16 Y113.602 E5.65021
M73 P1 R26
M73 Q1 S26
G1 X76.402 Y111.845 E5.72814
G1 X76.071 Y111.045 E5.75529
G1 X76.068 Y88.96 E6.44775
G1 X76.4 Y88.16 E6.47491
G1 X78.114 Y86.445 E6.55093
G1 X78.381 Y86.712 F7200
G1 F1200
G1 X78.424 Y86.669 E6.55284
G1 X78.957 Y86.448 E6.57093
G1 X121.04 Y86.444 E7.89041
G1 X121.573 Y86.664 E7.90849
G1 X123.331 Y88.421 E7.98642
G1 X123.552 Y88.955 E8.00454
G1 X123.554 Y111.04 E8.697
G1 X123.334 Y111.573 E8.71508
G1 X121.576 Y113.331 E8.79303
G1 X121.043 Y113.552 E8.81112
G1 X78.96 Y113.557 E10.1306
G1 X78.427 Y113.336 E10.14869
G1 X76.669 Y111.579 E10.22662
G1 X76.448 Y111.045 E10.24474
G1 X76.446 Y88.96 E10.9372
G1 X76.666 Y88.427 E10.95528
G1 X78.339 Y86.754 E11.02946
G1 X78.605 Y87.021 F7200
G1 F1200
G1 X78.69 Y86.936 E11.03323
G1 X78.957 Y86.825 E11.0423
G1 X121.04 Y86.821 E12.36178
G1 X121.307 Y86.931 E12.37083
G1 X123.064 Y88.688 E12.44874
G1 X123.175 Y88.955 E12.45781
G1 X123.177 Y111.04 E13.15027
G1 X123.067 Y111.307 E13.15932
G1 X121.31 Y113.064 E13.23723
G1 X121.043 Y113.175 E13.2463
G1 X78.96 Y113.18 E14.56578
G1 X78.693 Y113.069 E14.57485
G1 X76.936 Y111.312 E14.65276
G1 X76.825 Y111.045 E14.66183
G1 X76.823 Y88.96 E15.35429
G1 X76.933 Y88.693 E15.36334
M73 P2 R26
M73 Q2 S26
G1 X78.563 Y87.063 E15.43562
G1 X78.957 Y88.047 F7200
G1 F1200
G1 X79.837 Y87.751 E15.46473
G1 X120.211 Y87.755 E16.73063
G1 X120.614 Y87.85 E16.74361
G1 X121.057 Y88.055 E16.75892
G1 X121.747 Y88.68 E16.78811
G1 X122.059 Y89.169 E16.8063
G1 X122.249 Y89.838 E16.82811
G1 X122.251 Y110.125 E17.46419
G1 X122.146 Y110.618 E17.47999
G1 X121.893 Y111.13 E17.4979
G1 X121.313 Y111.751 E17.52454
G1 X121.043 Y111.953 E17.53511
G1 X120.163 Y112.249 E17.56422
G1 X79.842 Y112.253 E18.82846
G1 X79.179 Y112.066 E18.85006
G1 X78.845 Y111.881 E18.86203
G1 X78.25 Y111.316 E18.88776
G1 X78.047 Y111.046 E18.89835
G1 X77.751 Y110.166 E18.92746
G1 X77.749 Y89.875 E19.56367
G1 X77.854 Y89.382 E19.57947
G1 X78.107 Y88.87 E19.59738
G1 X78.687 Y88.249 E19.62402
G1 X78.909 Y88.083 E19.63271
G1 X79.132 Y88.386 F7200
G1 F1200
G1 X79.867 Y88.128 E19.65713
G1 X120.187 Y88.132 E20.92134
G1 X120.503 Y88.211 E20.93155
G1 X120.869 Y88.383 E20.94423
G1 X121.474 Y88.941 E20.97004
G1 X121.706 Y89.302 E20.98349
G1 X121.872 Y89.866 E21.00192
G1 X121.874 Y110.103 E21.63644
G1 X121.784 Y110.512 E21.64957
G1 X121.57 Y110.934 E21.66441
G1 X121.053 Y111.478 E21.68794
G1 X120.844 Y111.632 E21.69608
G1 X120.133 Y111.872 E21.71961
G1 X79.87 Y111.876 E22.98203
G1 X79.308 Y111.711 E23.00039
G1 X79.053 Y111.566 E23.00959
G1 X78.523 Y111.057 E23.03263
G1 X78.368 Y110.846 E23.04084
G1 X78.128 Y110.135 E23.06437
G1 X78.126 Y89.897 E23.69892
G1 X78.216 Y89.488 E23.71205
G1 X78.43 Y89.066 E23.72689
G1 X78.947 Y88.522 E23.75042
G1 X79.083 Y88.422 E23.75571
G1 X79.303 Y88.727 F7200
G1 F1200
G1 X79.353 Y88.691 E23.75764
G1 X79.899 Y88.506 E23.77572
G1 X120.163 Y88.51 E25.03817
G1 X120.358 Y88.559 E25.04447
G1 X120.68 Y88.711 E25.05563
G1 X121.198 Y89.199 E25.07794
M73 Q3 S26
G1 X121.354 Y89.44 E25.08694
G1 X121.495 Y89.895 E25.10188
G1 X121.497 Y110.084 E25.73489
G1 X121.436 Y110.364 E25.74388
M73 P3 R26
G1 X121.247 Y110.738 E25.75702
G1 X120.795 Y111.202 E25.77733
G1 X120.647 Y111.309 E25.78306
G1 X120.101 Y111.495 E25.80115
G1 X79.9 Y111.499 E27.06162
G1 X79.443 Y111.358 E27.07662
M73 Q3 S25
G1 X79.266 Y111.254 E27.08306
G1 X78.799 Y110.799 E27.1035
G1 X78.691 Y110.649 E27.1093
G1 X78.505 Y110.104 E27.12736
G1 X78.503 Y89.916 E27.76034
G1 X78.564 Y89.637 E27.76929
G1 X78.753 Y89.263 E27.78243
G1 X79.255 Y88.762 E27.80467
G1 X79.471 Y89.069 F7200
G1 F1200
G1 X79.548 Y89.015 E27.80762
G1 X79.93 Y88.883 E27.82029
G1 X120.1 Y88.882 E29.07979
G1 X120.217 Y88.909 E29.08355
G1 X120.49 Y89.038 E29.09302
G1 X120.921 Y89.455 E29.11182
G1 X121.005 Y89.583 E29.11662
G1 X121.118 Y89.927 E29.12797
G1 X121.12 Y110.065 E29.75938
G1 X121.088 Y110.216 E29.76422
M73 P3 R25
G1 X120.925 Y110.54 E29.77559
G1 X120.542 Y110.922 E29.79255
G1 X120.452 Y110.985 E29.79599
G1 X120.07 Y111.118 E29.80867
G1 X79.932 Y111.122 E31.06717
G1 X79.585 Y111.008 E31.07862
G1 X79.485 Y110.946 E31.08231
G1 X79.077 Y110.544 E31.10027
G1 X79.014 Y110.454 E31.10371
G1 X78.882 Y110.072 E31.11638
G1 X78.88 Y89.935 E31.74776
G1 X78.912 Y89.784 E31.7526
G1 X79.075 Y89.461 E31.76394
G1 X79.426 Y89.109 E31.77953
G1 X79.693 Y89.376 F7200
G1 F1200
G1 X79.737 Y89.341 E31.78129
G1 X79.964 Y89.26 E31.78885
G1 X120.048 Y89.255 E33.04566
G1 X120.298 Y89.365 E33.05422
G1 X120.641 Y89.708 E33.06943
G1 X120.741 Y89.962 E33.07799
G1 X120.743 Y110.047 E33.70774
G1 X120.633 Y110.298 E33.71633
G1 X120.29 Y110.641 E33.73154
G1 X120.036 Y110.74 E33.74009
G1 X79.967 Y110.745 E34.99643
G1 X79.739 Y110.664 E35.00402
G1 X79.359 Y110.292 E35.02069
G1 X79.259 Y110.038 E35.02925
G1 X79.257 Y89.953 E35.659
G1 X79.367 Y89.702 E35.66759
M73 P4 R25
M73 Q4 S25
G1 X79.651 Y89.418 E35.68018
G1 X79.917 Y89.685 F7200
G1 F1200
G1 X80.006 Y89.637 E35.68335
G1 X119.991 Y89.632 E36.93705
G1 X120.061 Y89.661 E36.93943
G1 X120.335 Y89.935 E36.95158
G1 X120.363 Y90.004 E36.95391
G1 X120.366 Y109.991 E37.58059
G1 X120.337 Y110.061 E37.58297
G1 X120.063 Y110.335 E37.59512
G1 X119.994 Y110.363 E37.59745
G1 X80.008 Y110.368 E38.85118
G1 X79.939 Y110.339 E38.85353
G1 X79.665 Y110.065 E38.86568
G1 X79.637 Y109.996 E38.86801
G1 X79.634 Y90.009 E39.49469
G1 X79.663 Y89.939 E39.49707
G1 X79.875 Y89.727 E39.50647
G1 X80.122 Y90.014 F7200
G1 F1200
G1 X119.876 Y90.009 E40.75293
G1 X119.986 Y90.12 E40.75783
G1 X119.989 Y109.876 E41.37727
G1 X119.878 Y109.986 E41.38217
G1 X80.124 Y109.991 E42.62863
G1 X80.014 Y109.88 E42.63353
G1 X80.011 Y90.124 E43.25297
G1 X80.079 Y90.056 E43.25599
;WIPE_START
G1 F5760
G1 X85.132 Y90.05 E41.25599
;WIPE_END
G92 E0
G1 Z.4 F7200
G1 X83.155 Y106.841
G1 Z.2
G1 E2 F2400
G1 F1200
G1 X83.298 Y106.844 E2.00448
G1 X83.422 Y106.898 E2.00872
G1 X83.53 Y107.01 E2.0136
G1 X83.583 Y107.149 E2.01826
G1 X83.575 Y107.304 E2.02313
G1 X83.508 Y107.437 E2.0278
G1 X83.399 Y107.528 E2.03225
G1 X83.277 Y107.573 E2.03633
G1 X83.128 Y107.571 E2.041
G1 X82.994 Y107.51 E2.04562
G1 X82.894 Y107.4 E2.05028
G1 X82.843 Y107.253 E2.05516
G1 X82.85 Y107.123 E2.05924
G1 X82.916 Y106.982 E2.06412
G1 X83.021 Y106.887 E2.06856
G1 X83.099 Y106.861 E2.07114
G1 X82.977 Y106.504 F7200
G1 F1200
G1 X83.096 Y106.463 E2.07509
G1 X83.36 Y106.467 E2.08337
G1 X83.52 Y106.519 E2.08864
G1 X83.656 Y106.598 E2.09357
G1 X83.84 Y106.788 E2.10186
G1 X83.916 Y106.937 E2.1071
G1 X83.957 Y107.089 E2.11204
G1 X83.965 Y107.247 E2.117
G1 X83.941 Y107.402 E2.12192
G1 X83.884 Y107.549 E2.12686
G1 X83.793 Y107.689 E2.1321
G1 X83.59 Y107.859 E2.1404
G1 X83.341 Y107.951 E2.14872
G1 X83.066 Y107.947 E2.15734
G1 X82.907 Y107.895 E2.16259
G1 X82.771 Y107.816 E2.16752
G1 X82.654 Y107.711 E2.17245
G1 X82.555 Y107.576 E2.1777
G1 X82.469 Y107.325 E2.18602
G1 X82.461 Y107.168 E2.19095
G1 X82.486 Y107.012 E2.1959
G1 X82.597 Y106.772 E2.20419
G1 X82.709 Y106.647 E2.20945
G1 X82.845 Y106.549 E2.21471
G1 X82.92 Y106.523 E2.2172
G1 X82.754 Y106.175 F7200
G1 F1200
G1 X83.036 Y106.089 E2.22644
G1 X83.278 Y106.076 E2.23404
G1 X83.444 Y106.098 E2.23929
G1 X83.674 Y106.173 E2.24688
G1 X83.879 Y106.291 E2.2543
G1 X84.059 Y106.453 E2.26189
G1 X84.161 Y106.586 E2.26715
G1 X84.27 Y106.801 E2.27471
G1 X84.332 Y107.03 E2.28215
G1 X84.344 Y107.266 E2.28956
G1 X84.307 Y107.5 E2.29699
G1 X84.222 Y107.721 E2.30441
G1 X84.091 Y107.924 E2.31199
G1 X83.975 Y108.046 E2.31727
G1 X83.78 Y108.188 E2.32483
G1 X83.559 Y108.286 E2.33241
G1 X83.395 Y108.325 E2.3377
G1 X83.149 Y108.338 E2.34542
G1 X82.983 Y108.316 E2.35067
G1 X82.753 Y108.242 E2.35825
G1 X82.548 Y108.123 E2.36568
G1 X82.372 Y107.965 E2.3731
G1 X82.23 Y107.769 E2.38069
G1 X82.158 Y107.618 E2.38594
G1 X82.095 Y107.384 E2.39354
G1 X82.083 Y107.148 E2.40095
G1 X82.12 Y106.914 E2.40838
G1 X82.206 Y106.688 E2.41596
G1 X82.294 Y106.545 E2.42122
G1 X82.456 Y106.366 E2.42879
G1 X82.699 Y106.201 E2.438
G1 X82.537 Y105.86 F7200
G1 F1200
G1 X82.672 Y105.796 E2.44268
G1 X82.977 Y105.714 E2.45258
G1 X83.292 Y105.698 E2.46247
G1 X83.528 Y105.729 E2.46993
G1 X83.828 Y105.826 E2.47982
G1 X84.102 Y105.984 E2.48974
G1 X84.337 Y106.196 E2.49966
G1 X84.481 Y106.384 E2.50709
G1 X84.624 Y106.665 E2.51698
G1 X84.706 Y106.971 E2.52691
G1 X84.723 Y107.286 E2.5368
G1 X84.673 Y107.598 E2.54671
G1 X84.56 Y107.893 E2.55661
G1 X84.388 Y108.158 E2.56652
G1 X84.225 Y108.331 E2.57397
G1 X83.969 Y108.516 E2.58387
G1 X83.68 Y108.645 E2.59379
G1 X83.45 Y108.7 E2.6012
G1 X83.134 Y108.717 E2.61112
G1 X82.899 Y108.686 E2.61855
G1 X82.599 Y108.588 E2.62845
G1 X82.325 Y108.43 E2.63837
G1 X82.09 Y108.219 E2.64827
G1 X81.904 Y107.963 E2.65819
G1 X81.802 Y107.749 E2.66562
G1 X81.72 Y107.444 E2.67552
G1 X81.704 Y107.128 E2.68544
G1 X81.753 Y106.816 E2.69534
G1 X81.867 Y106.521 E2.70526
G1 X81.991 Y106.319 E2.71269
G1 X82.202 Y106.084 E2.72259
G1 X82.483 Y105.886 E2.73337
G1 X81.543 Y104.671 F7200
;TYPE:Perimeter
;WIDTH:0.419999
G1 F1200
G1 X81.541 Y91.543 E3.14499
G1 X118.457 Y91.539 E4.30246
G1 X118.459 Y108.457 E4.83291
M73 P5 R25
M73 Q5 S25
G1 X85.974 Y108.46 E5.85145
G1 X86.056 Y108.276 E5.85777
G1 X86.197 Y107.784 E5.87382
G1 X86.251 Y107.186 E5.89265
G1 X86.18 Y106.555 E5.91256
G1 X85.98 Y105.953 E5.93245
G1 X85.691 Y105.45 E5.95064
G1 X85.335 Y105.033 E5.96783
G1 X84.85 Y104.649 E5.98723
G1 X84.398 Y104.409 E6.00328
G1 X83.824 Y104.232 E6.02211
G1 X83.249 Y104.17 E6.04024
G1 X82.702 Y104.212 E6.05744
G1 X82.105 Y104.379 E6.07688
G1 X81.596 Y104.643 E6.09486
G1 X81.166 Y105.508 F7200
G1 F1200
G1 X81.164 Y91.166 E6.54454
G1 X118.834 Y91.162 E7.72565
G1 X118.836 Y108.834 E8.27974
G1 X85.31 Y108.838 E9.33092
G1 X85.467 Y108.622 E9.33929
G1 X85.712 Y108.123 E9.35672
G1 X85.83 Y107.696 E9.37061
G1 X85.874 Y107.166 E9.38728
G1 X85.807 Y106.614 E9.40471
G1 X85.627 Y106.088 E9.42214
G1 X85.373 Y105.652 E9.43796
G1 X85.058 Y105.288 E9.45305
G1 X84.629 Y104.954 E9.4701
G1 X84.236 Y104.749 E9.484
G1 X83.727 Y104.596 E9.50066
G1 X83.226 Y104.546 E9.51645
G1 X82.564 Y104.627 E9.53736
G1 X82.042 Y104.818 E9.55479
G1 X81.571 Y105.114 E9.57223
G1 X81.209 Y105.467 E9.58808
G1 X80.879 Y106.768 F7200
;WIDTH:0.600778
G1 F1200
G1 X80.857 Y106.643 E9.59397
;WIDTH:0.555584
G1 X80.834 Y106.518 E9.59939
;WIDTH:0.510389
G1 X80.811 Y106.392 E9.60437
;WIDTH:0.465194
G1 X80.789 Y106.267 E9.60883
;WIDTH:0.419999
G1 X80.787 Y90.789 E10.09413
G1 X119.211 Y90.785 E11.29889
G1 X119.212 Y99.998 E11.58776
G1 X119.213 Y109.211 E11.87663
G1 X84.292 Y109.215 E12.97155
G1 X84.508 Y109.09 E12.97937
G1 X84.871 Y108.78 E12.99434
G1 X85.162 Y108.4 E13.00935
G1 X85.367 Y107.97 E13.02429
G1 X85.464 Y107.608 E13.03604
G1 X85.497 Y107.147 E13.05053
G1 X85.435 Y106.673 E13.06552
G1 X85.275 Y106.223 E13.08049
G1 X85.054 Y105.854 E13.09398
G1 X84.781 Y105.544 E13.10693
G1 X84.407 Y105.259 E13.12167
G1 X84.074 Y105.089 E13.13339
G1 X83.629 Y104.96 E13.14792
G1 X83.202 Y104.922 E13.16136
G1 X82.79 Y104.961 E13.17434
G1 X82.338 Y105.096 E13.18913
G1 X81.919 Y105.324 E13.20409
G1 X81.556 Y105.635 E13.21908
G1 X81.237 Y106.06 E13.23574
;WIDTH:0.465194
G1 X81.148 Y106.237 E13.2427
;WIDTH:0.510389
G1 X81.058 Y106.414 E13.25042
;WIDTH:0.555584
G1 X80.969 Y106.591 E13.25887
;WIDTH:0.600778
G1 X80.906 Y106.715 E13.26532
;WIPE_START
G1 F5760
G1 X80.857 Y106.643 E13.23085
G1 X80.834 Y106.518 E13.18054
G1 X80.811 Y106.392 E13.12984
G1 X80.789 Y106.267 E13.0796
G1 X80.788 Y101.684 E11.26532
;WIPE_END
G92 E0
G1 Z.4 F7200
G1 X82.13 Y109.215
G1 Z.2
M73 Q6 S25
G1 E2 F2400
;WIDTH:0.419999
M73 P6 R25
G1 F1200
G1 X80.789 Y109.215 E2.04205
G1 X80.789 Y108.21 E2.07356
;WIDTH:0.461164
G1 X80.81 Y108.121 E2.07674
;WIDTH:0.502329
G1 X80.83 Y108.033 E2.08019
;WIDTH:0.543494
G1 X80.851 Y107.945 E2.08396
;WIDTH:0.584659
G1 X80.871 Y107.857 E2.08803
;WIDTH:0.625824
G1 X80.892 Y107.768 E2.09246
G1 X80.923 Y107.821 E2.09544
;WIDTH:0.593839
G1 X80.954 Y107.875 E2.09829
;WIDTH:0.561853
G1 X81.081 Y108.086 E2.10892
;WIDTH:0.514569
G1 X81.207 Y108.297 E2.11856
;WIDTH:0.467284
G1 X81.334 Y108.508 E2.12725
;WIDTH:0.419999
G1 X81.724 Y108.941 E2.14552
G1 X82.081 Y109.181 E2.15901
G1 X83.245 Y109.138 F7200
;TYPE:External perimeter
;WIDTH:0.486969
G1 F1200
G1 X82.887 Y109.122 E2.17224
G1 X82.56 Y108.984 E2.18534
;WIDTH:0.453484
G1 X82.233 Y108.845 E2.19747
;WIDTH:0.419999
G1 X81.921 Y108.613 E2.20966
G1 X81.658 Y108.315 E2.22212
G1 X81.485 Y108.016 E2.23295
G1 X81.364 Y107.682 E2.24409
G1 X81.308 Y107.327 E2.25536
G1 X81.331 Y106.889 E2.26911
G1 X81.437 Y106.507 E2.28154
G1 X81.593 Y106.198 E2.29239
G1 X81.808 Y105.915 E2.30353
G1 X82.107 Y105.651 E2.31604
G1 X82.455 Y105.455 E2.32856
G1 X82.833 Y105.336 E2.34099
G1 X83.178 Y105.299 E2.35187
G1 X83.532 Y105.325 E2.363
G1 X83.911 Y105.43 E2.37533
G1 X84.185 Y105.564 E2.38489
G1 X84.504 Y105.8 E2.39733
G1 X84.736 Y106.056 E2.40816
G1 X84.923 Y106.358 E2.4193
G1 X85.063 Y106.732 E2.43182
G1 X85.121 Y107.127 E2.44434
G1 X85.097 Y107.52 E2.45669
G1 X85.023 Y107.816 E2.46626
G1 X84.857 Y108.179 E2.47878
G1 X84.619 Y108.499 E2.49128
G1 X84.32 Y108.763 E2.50379
;WIDTH:0.449826
G1 X83.979 Y108.931 E2.51665
;WIDTH:0.479653
G1 X83.639 Y109.099 E2.53042
G1 X83.305 Y109.138 E2.54263
G1 X83.085 Y109.459 F7200
;WIPE_START
G1 F5760
G1 X82.887 Y109.122 E2.37705
G1 X82.56 Y108.984 E2.23656
G1 X82.233 Y108.845 E2.09591
G1 X81.921 Y108.613 E1.94201
G1 X81.658 Y108.315 E1.78468
G1 X81.485 Y108.016 E1.64794
G1 X81.364 Y107.682 E1.50732
G1 X81.308 Y107.327 E1.36506
G1 X81.331 Y106.889 E1.19145
G1 X81.437 Y106.507 E1.03453
G1 X81.593 Y106.198 E.89751
G1 X81.808 Y105.915 E.75683
G1 X82.107 Y105.651 E.59894
G1 X82.231 Y105.581 E.54263
;WIPE_END
G92 E0
G1 Z.4 F7200
G1 X80.892 Y107.768
G1 Z.2
G1 E2 F2400
;TYPE:Perimeter
;WIDTH:0.625824
G1 F1200
G1 X80.875 Y107.516 E2.01224
;WIDTH:0.593114
G1 X80.859 Y107.264 E2.02379
;WIDTH:0.600778
G1 X80.879 Y106.768 E2.04682
;WIPE_START
G1 F5760
G1 X80.859 Y107.264 E1.85033
G1 X80.875 Y107.516 E1.75038
G1 X80.892 Y107.768 E1.6504
;WIPE_END
G1 E.04682 F2400
G92 E0
G1 Z.4 F7200
G1 X81.17 Y108.819
G1 Z.2
G1 E2 F2400
;WIDTH:0.38495
G1 F1200
G1 X81.106 Y108.856 E2.0021
G1 X81.17 Y108.893 E2.0042
G1 X81.191 Y108.856 E2.00541
G1 X80.412 Y109.592 F7200
;TYPE:External perimeter
;WIDTH:0.419999
G1 F1200
G1 X80.41 Y90.412 E2.60678
G1 X119.588 Y90.408 E3.83518
G1 X119.589 Y99.998 E4.13587
G1 X119.59 Y109.588 E4.43656
G1 X84.182 Y109.592 E5.54675
;WIDTH:0.454762
G1 X83.906 Y109.575 E5.55622
;WIDTH:0.489525
G1 X83.63 Y109.557 E5.56649
G1 X82.921 Y109.562 E5.59282
;WIDTH:0.479698
